X:1
T: Fiddich Bridge
C:Alexander Walker
R:Strathspey
Q: 128
K:G
M:4/4
L:1/16
|:d2|g3a g3d ce3 d4|g3a g3B EA3 F3D|g3a g3d ce3 d3c|B3G A3G G4 G3d|
g3a g3d c3e d3B|c3A B3G A3G F3D|B,3G, B,3E C3A, C3D|EA3 F3D G6g2|
b3g d3g B3g d3g|b3g d3g E3A F3D|b3g d3g B3g d3B|E3A F3D G4 G3g|
b3g d3g B3g d3g|c3a B3g A3G F3D|B,3G, A,3D C3A, C3D|EA3 F3D G6:|
